X:285
%%etbk:tnset id:87,pos:1,rep:3x,ant:
%%etbk:wsite http://www.thesession.org/tunes/display/515
%%etbk:pldat 2014-05-20T17:15,2014-04-26T16:43,2014-03-25T17:37,2014-03-23T16:21,2014-03-15T15:22,2014-02-07T17:07,2013-11-24T14:57,2013-05-13T19:14
T: Maguire's Kick
Z: Piano Box Version by Martin Fleischmann
H: Created 2013-02-19 /  Last Modified 2013-02-19
M: 6/8
L: 1/8
R: jig
K: Dmaj
|: "D"!3!F2!2!E {G}E!1!DE | !3!F2!1!D !1!D!2!D!1!D | !2!F2!1!E E!2!F!1!A | !3!d2e !5!f!3!d!1!A |
| !3!F2!2!E E!1!DE | !3!F2!1!D !1!D!2!D!1!D | !4!A!2!F!1!E EF!4!A | "G"!2!B3 !4!d3:|
|: "D"!1!AB!4!d !2!e2f | !1!d2!3!c B{d}B!1!A | !1!AB!4!d !2!e2f | !1!d!3!c!1!A "G"!2!B3 |
| "D"!1!AB!4!d !2!ede | !3!f!1!d!2!B {d}B!1!A!2!F | !4!A!2!F!1!E EF!4!A | "G"!2!B3 !4!d3:|


